X: 0018
T: G\aangl\aat efter Halvor B\"ockman
P: A-bas
%R: ganglat, march
B: Paul B\"ackstr\"om's "L\aatar fr\aan Dalarna" collection" 1974
Z: 2022 John Chambers <jc:trillian.mit.edu>
M: C
L: 1/16
K: D
%%slurgraces 1
%%graceslurs 1
% - - - - - - - - - -
g4 |\
(3(fgf)ed e2fg a2c2 d2eg | (3(fgf)ed e2c2 A4 [D4A,4] |\
({fe}f2d2) {f}e2fg a2ab a2g2 | (3(fgf)ed e2fg a2c2 d2eg |
(3(fgf)ed (5(cAcAc) d4 [D4D4] | (g>age) f2d2 (ef)ed c2A2 ||\
[M:5/4] (g>a)ge f2d2 (5(cAcAc) d4 [A4A,4] ||[M:C] (gage) f2d2 efed c2A2 ||
[M:5/4] (g>a)ge f2d2 (6(cAcAcA) [d4D4] [A4A,4] ||[M:C] f2d2 A2(fefg) a3b a2g2 |\
(3(fgf)ed e2fg a2c2 d2eg | (3(fgf)ed [e2c2][e2c2] ([ce2]A)[c2e2] [d4D4] |
{fe}f2(df) e2(fg) a3b a2g2 | (3(fgf)ed e2fg a2c2 d2eg |\
(3(fgf)ed (5(cAcAc) [d4D4] D4 | (g>age) f2d2 (ef)ed c2[A2D2] ||
[M:5/4](g>age) f2d2 (5(cAcAc) [d4D4] [A4A,4] ||[M:C] (g>age) f2d2 efed c2A2 |\
(gage) f2d2 (5(cAcAc) ([d2-D2][d2F2]) |]
% - - - - - - - - - -
%%text Uppt. Ture Gudmundsson

%%sep 2 1 500
%%sep 1 1 500

